icons/lines/send-sqaure-two.svg

<svg xmlns="http://www.w3.org/2000/svg" width="24" height="24" viewBox="0 0 24 24" fill="none" stroke="currentColor" stroke-width="2" stroke-linecap="round" stroke-linejoin="round" >
  <path d="M9 22H15C20 22 22 20 22 15V9C22 4 20 2 15 2H9C4 2 2 4 2 9V15C2 20 4 22 9 22Z"/>
  <path d="M10.5898 7.67999H14.8298V11.93"/>
  <path d="M14.8299 7.67999L9.16992 13.34"/>
  <path d="M6 16.51C9.89 17.81 14.11 17.81 18 16.51"/>
  </svg>

<svg xmlns="http://www.w3.org/2000/svg" width="24" height="24" viewBox="0 0 24 24" fill="none" stroke="currentColor" stroke-width="2" stroke-linecap="round" stroke-linejoin="round">
  <path d="M10.59 7.68h4.24v4.25" />
  <path d="m14.83 7.68-5.66 5.66" />
  <path d="M15 22c5 0 7-2 7-7V9c0-5-2-7-7-7H9C4 2 2 4 2 9v6c0 5 2 7 7 7z" />
  <path d="M6 16.51a19 19 0 0 0 12 0" />
</svg>
